X:2867
T:Charlie Harris's?
R:Reel
S:
H:
N:
D:Clare FM
Z:Adrian Scahill
M:4/4
L:1/8
K:D
AFF2 EFDB|AFAB efdB|AFF2 EFDB|AFAB d3B:||\
defd efdB|AFAB efdB|d2fd efdB|AFAB d4|\
defd efdB|AFAB efdB|dff2 dfbf|afef d4:||


